X: 6
T: The Concertina
R: reel
M: 4/4
L: 1/8
K: Dmaj
|:AG | (3ABA FA BAFG | (3ABA FA BAFA | B2(3cBA B2(3cBA | B2(3cBA BAFG |
| (3ABA FA BAFG | (3ABA FA BAFE | FABc d2cd | AFEF D2 :|
|: FG | Ad (3ded fd (3ded | Ad (3ded BAFA | B2(3cBA B2(3cBA | B2(3cBA BAFG |
| Ad (3ded fd (3ded | Ad (3ded BAFE | FABc d2cd | AFEF D2 :|


Tune 18	Setting 18

